svg/Frame-1261156450.svg

<svg width="49" height="73" viewBox="0 0 49 73" fill="none" xmlns="http://www.w3.org/2000/svg"><rect width="49" height="73" fill="#DADADA"/><mask id="path-2-inside-1_2483_15959" fill="white"><path d="M843 91L-597 90.9999L-597 -18.0001L843 -18L843 91Z"/></mask><path d="M843 91L-597 90.9999L-597 -18.0001L843 -18L843 91Z" fill="white"/><path d="M6.43601 61.556V62.744H8.39201V58.244H9.19601V62.744H11.14V61.556H9.88001V60.836H11.14V59.528H9.82001V58.784H11.92V63.488H9.19601V64.544H11.884V65.276C11.452 66.152 10.732 66.896 9.74801 67.52C10.54 67.88 11.464 68.168 12.52 68.384L12.208 69.188C10.9 68.912 9.78401 68.516 8.86001 68.012C7.85201 68.492 6.65201 68.9 5.24801 69.212L4.81601 68.444C6.06401 68.204 7.14401 67.892 8.04401 67.508C7.18001 66.896 6.53201 66.164 6.07601 65.324H5.57201V64.544H8.39201V63.488H5.64401V59.156C6.26801 58.988 6.86801 58.736 7.43201 58.4L7.92401 59.036C7.51601 59.252 7.01201 59.468 6.43601 59.684V60.836H7.74401V61.556H6.43601ZM6.96401 65.324C7.43201 66.008 8.08001 66.596 8.90801 67.088C9.80801 66.584 10.492 65.996 10.948 65.324H6.96401ZM2.98001 69.092H1.85201L1.67201 68.276C2.03201 68.312 2.36801 68.336 2.68001 68.336C2.96801 68.336 3.12401 68.168 3.12401 67.844V64.928C2.66801 65.096 2.22401 65.252 1.76801 65.396L1.57601 64.58C2.10401 64.436 2.62001 64.28 3.12401 64.088V61.328H1.79201V60.5H3.12401V58.256H3.96401V60.5H5.08001V61.328H3.96401V63.752C4.37201 63.572 4.78001 63.368 5.17601 63.152V63.992C4.78001 64.196 4.37201 64.388 3.96401 64.58V68.06C3.96401 68.744 3.62801 69.092 2.98001 69.092ZM14.512 59.144H18.556V58.196H19.444V59.144H23.488V59.936H19.444V60.98H23.98V63.176H23.14V61.736H18.556L19.216 62.06C18.496 62.636 17.752 63.128 16.972 63.548C18.076 63.524 18.976 63.5 19.648 63.452C20.068 63.164 20.5 62.864 20.932 62.552L21.628 63.02C20.212 64.076 18.7 64.88 17.068 65.456C18.628 65.408 20.176 65.324 21.736 65.216C21.472 64.928 21.196 64.652 20.908 64.364L21.532 63.968C22.408 64.82 23.08 65.564 23.548 66.212L22.9 66.68C22.708 66.392 22.492 66.104 22.252 65.816C21.28 65.876 20.368 65.936 19.504 65.984V68.276C19.504 68.876 19.168 69.188 18.52 69.188H17.428L17.248 68.384C17.584 68.42 17.92 68.444 18.232 68.444C18.496 68.444 18.64 68.312 18.64 68.072V66.02C17.32 66.08 16.108 66.128 15.004 66.152L14.836 65.372C15.088 65.384 15.34 65.396 15.58 65.396C16.564 65.12 17.572 64.688 18.628 64.088C17.812 64.112 16.888 64.148 15.844 64.172L15.676 63.512C15.856 63.476 16.036 63.404 16.216 63.308C16.996 62.864 17.74 62.336 18.436 61.736H14.86V63.164H14.02V60.98H18.556V59.936H14.512V59.144ZM20.776 66.62C22.024 67.076 23.152 67.628 24.172 68.276L23.728 68.972C22.624 68.252 21.496 67.676 20.344 67.256L20.776 66.62ZM16.996 66.596L17.5 67.16C16.6 67.88 15.472 68.468 14.116 68.936L13.756 68.168C15.064 67.772 16.144 67.244 16.996 66.596ZM30.352 58.916V66.224C30.628 66.14 30.892 66.056 31.156 65.972V66.788C29.596 67.292 27.784 67.76 25.72 68.192L25.48 67.352C25.768 67.292 26.056 67.232 26.344 67.184V58.916H30.352ZM27.196 67.004C28.012 66.824 28.78 66.644 29.512 66.452V64.796H27.196V67.004ZM27.196 64.016H29.512V62.204H27.196V64.016ZM27.196 61.412H29.512V59.708H27.196V61.412ZM32.536 58.256H33.4V60.656H36.052C36.052 64.4 35.992 66.704 35.872 67.592C35.752 68.576 35.152 69.08 34.072 69.08C33.88 69.08 33.544 69.068 33.064 69.044L32.86 68.276C33.28 68.3 33.64 68.324 33.952 68.324C34.588 68.324 34.96 67.964 35.056 67.268C35.128 66.644 35.176 64.712 35.2 61.496H33.4V61.664C33.364 65.12 32.512 67.652 30.844 69.248L30.196 68.684C31.732 67.232 32.512 64.892 32.536 61.664V61.496H31.048V60.656H32.536V58.256ZM47.032 58.304L47.452 59.036C46.36 59.324 45.1 59.552 43.66 59.696V61.724H47.488V62.564H43.66V64.532H48.388V65.36H43.66V68.012C43.66 68.732 43.276 69.104 42.532 69.104H40.672L40.48 68.264C41.092 68.288 41.68 68.312 42.232 68.312C42.592 68.312 42.784 68.132 42.784 67.796V65.36H37.624V64.532H42.784V62.564H38.62V61.724H42.784V59.768C41.512 59.864 40.132 59.924 38.644 59.924L38.38 59.144C41.86 59.144 44.74 58.856 47.032 58.304Z" fill="black"/><path d="M0.500008 10C0.500008 4.47716 4.97716 4.28372e-06 10.5 4.28372e-06H38.5C44.0229 4.28372e-06 48.5 4.47716 48.5 10V38C48.5 43.5229 44.0229 48 38.5 48H10.5C4.97716 48 0.500008 43.5229 0.500008 38V10Z" fill="url(#paint0_linear_2483_15959)"/><path opacity="0.8" d="M32.8611 33.9428L30.1223 31.1426C30.79 30.1153 31.1801 28.8877 31.1801 27.5679C31.1801 23.9537 28.2684 21.0244 24.676 21.0244C21.0835 21.0244 18.1719 23.9537 18.1719 27.5679C18.1719 31.1821 21.0835 34.1114 24.676 34.1114C25.9197 34.1114 27.0823 33.7584 28.0721 33.1499L30.8214 35.9607C31.1016 36.2478 31.4708 36.3901 31.8426 36.3901C32.2144 36.3901 32.5679 36.2531 32.8454 35.9765C33.4084 35.418 33.4162 34.5066 32.8611 33.9402V33.9428ZM24.676 32.4571C21.9974 32.4571 19.8189 30.2654 19.8189 27.5706C19.8189 24.8757 21.9974 22.684 24.676 22.684C27.3546 22.684 29.5331 24.8757 29.5331 27.5706C29.5331 30.2654 27.3546 32.4571 24.676 32.4571Z" fill="url(#paint1_linear_2483_15959)"/><path opacity="0.8" d="M20.6875 27.6474C20.6875 25.4314 22.3594 23.541 24.5289 23.541C24.8947 23.541 25.1912 23.8375 25.1912 24.2033C25.1912 24.5691 24.8947 24.8656 24.5289 24.8656C23.1888 24.8656 22.0121 26.0611 22.0121 27.6474C22.0121 28.0131 21.7156 28.3097 21.3498 28.3097C20.984 28.3097 20.6875 28.0131 20.6875 27.6474Z" fill="url(#paint2_linear_2483_15959)"/><path d="M39.876 24.8017C39.876 26.0781 39.5199 27.3145 38.7516 28.3468C37.8273 29.5832 36.4029 30.4435 34.9184 30.8196C34.1381 31.0156 33.3739 30.9996 32.5776 30.9996C32.1655 30.9996 31.8934 30.5835 32.0415 30.1994C32.8937 27.9387 32.6336 25.2018 31.2692 23.1771C28.4363 18.4716 20.9539 18.4796 18.121 23.1771C16.7565 25.1938 16.5005 27.9427 17.3487 30.1994C17.4928 30.5875 17.2247 30.9996 16.8126 30.9996H15.2361C8.88472 31.0647 7.40519 22.3496 12.8407 20.0999C13.2811 19.9176 13.5836 19.4901 13.6445 19.0175C13.981 16.405 16.7375 14.5971 19.3012 15.1618C19.7951 15.2707 20.3321 15.105 20.6445 14.7072C24.428 9.89054 33.2796 11.8331 34.4669 17.9133C34.5552 18.3653 34.8971 18.7348 35.3396 18.8623C37.9635 19.6184 39.876 21.9914 39.876 24.8017Z" fill="url(#paint3_linear_2483_15959)" stroke="url(#paint4_linear_2483_15959)" stroke-width="0.4"/><defs><linearGradient id="paint0_linear_2483_15959" x1="24.5" y1="2.50005e-05" x2="24.5" y2="48" gradientUnits="userSpaceOnUse"><stop stop-color="#FCA681"/><stop offset="1" stop-color="#FD6865"/></linearGradient><linearGradient id="paint1_linear_2483_15959" x1="25.7222" y1="21.0244" x2="25.7222" y2="36.3901" gradientUnits="userSpaceOnUse"><stop stop-color="white"/><stop offset="1" stop-color="#FFE9B9"/></linearGradient><linearGradient id="paint2_linear_2483_15959" x1="22.9394" y1="23.541" x2="22.9394" y2="28.3097" gradientUnits="userSpaceOnUse"><stop stop-color="white"/><stop offset="1" stop-color="#FFE9B9"/></linearGradient><linearGradient id="paint3_linear_2483_15959" x1="24.688" y1="12" x2="24.688" y2="31" gradientUnits="userSpaceOnUse"><stop offset="0.238064" stop-color="#FFEFEF"/><stop offset="1" stop-color="#FFC4B5"/></linearGradient><linearGradient id="paint4_linear_2483_15959" x1="24.688" y1="12" x2="24.688" y2="31" gradientUnits="userSpaceOnUse"><stop offset="0.0961538" stop-color="white"/><stop offset="1" stop-color="#FF7A56"/></linearGradient></defs></svg>

<svg fill="none" viewBox="0 0 49 73"><path fill="#DADADA" d="M0 0h49v73H0z"/><path fill="white" d="M843 91H-597V-18H843z"/><path fill="black" d="M6.436 61.556v1.188h1.956v-4.5h.804v4.5h1.944v-1.188H9.88v-.72h1.26v-1.308H9.82v-.744h2.1v4.704H9.196v1.056h2.688v.732c-.432.876-1.152 1.62-2.136 2.244q1.188.54 2.772.864l-.312.804c-1.308-.276-2.424-.672-3.348-1.176-1.008.48-2.208.888-3.612 1.2l-.432-.768c1.248-.24 2.328-.552 3.228-.936-.864-.612-1.512-1.344-1.968-2.184h-.504v-.78h2.82v-1.056H5.644v-4.332a7 7 0 0 0 1.788-.756l.492.636c-.408.216-.912.432-1.488.648v1.152h1.308v.72zm.528 3.768q.702 1.026 1.944 1.764c.9-.504 1.584-1.092 2.04-1.764zM2.98 69.092H1.852l-.18-.816c.36.036.696.06 1.008.06.288 0 .444-.168.444-.492v-2.916c-.456.168-.9.324-1.356.468l-.192-.816c.528-.144 1.044-.3 1.548-.492v-2.76H1.792V60.5h1.332v-2.244h.84V60.5H5.08v.828H3.964v2.424c.408-.18.816-.384 1.212-.6v.84c-.396.204-.804.396-1.212.588v3.48c0 .684-.336 1.032-.984 1.032m11.532-9.948h4.044v-.948h.888v.948h4.044v.792h-4.044v1.044h4.536v2.196h-.84v-1.44h-4.584l.66.324a15 15 0 0 1-2.244 1.488c1.104-.024 2.004-.048 2.676-.096.42-.288.852-.588 1.284-.9l.696.468a17 17 0 0 1-4.56 2.436c1.56-.048 3.108-.132 4.668-.24-.264-.288-.54-.564-.828-.852l.624-.396c.876.852 1.548 1.596 2.016 2.244l-.648.468a10 10 0 0 0-.648-.864c-.972.06-1.884.12-2.748.168v2.292c0 .6-.336.912-.984.912h-1.092l-.18-.804a9 9 0 0 0 .984.06c.264 0 .408-.132.408-.372V66.02c-1.32.06-2.532.108-3.636.132l-.168-.78c.252.012.504.024.744.024.984-.276 1.992-.708 3.048-1.308-.816.024-1.74.06-2.784.084l-.168-.66c.18-.036.36-.108.54-.204.78-.444 1.524-.972 2.22-1.572H14.86v1.428h-.84V60.98h4.536v-1.044h-4.044zm6.264 7.476a17.5 17.5 0 0 1 3.396 1.656l-.444.696a16.6 16.6 0 0 0-3.384-1.716zm-3.78-.024.504.564c-.9.72-2.028 1.308-3.384 1.776l-.36-.768c1.308-.396 2.388-.924 3.24-1.572m13.356-7.68v7.308c.276-.084.54-.168.804-.252v.816q-2.34.756-5.436 1.404l-.24-.84c.288-.06.576-.12.864-.168v-8.268zm-3.156 8.088a61 61 0 0 0 2.316-.552v-1.656h-2.316zm0-2.988h2.316v-1.812h-2.316zm0-2.604h2.316v-1.704h-2.316zm5.34-3.156h.864v2.4h2.652c0 3.744-.06 6.048-.18 6.936-.12.984-.72 1.488-1.8 1.488q-.288 0-1.008-.036l-.204-.768c.42.024.78.048 1.092.048.636 0 1.008-.36 1.104-1.056.072-.624.12-2.556.144-5.772h-1.8v.168c-.036 3.456-.888 5.988-2.556 7.584l-.648-.564q2.304-2.178 2.34-7.02v-.168h-1.488v-.84h1.488zm14.496.048.42.732a24.5 24.5 0 0 1-3.792.66v2.028h3.828v.84H43.66v1.968h4.728v.828H43.66v2.652c0 .72-.384 1.092-1.128 1.092h-1.86l-.192-.84c.612.024 1.2.048 1.752.048.36 0 .552-.18.552-.516V65.36h-5.16v-.828h5.16v-1.968H38.62v-.84h4.164v-1.956a55 55 0 0 1-4.14.156l-.264-.78c3.48 0 6.36-.288 8.652-.84"/><path fill="url(#a)" d="M.5 10c0-5.523 4.477-10 10-10h28c5.523 0 10 4.477 10 10v28c0 5.523-4.477 10-10 10h-28c-5.523 0-10-4.477-10-10z"/><path fill="url(#b)" d="m32.861 33.943-2.739-2.8a6.54 6.54 0 0 0 1.058-3.575c0-3.614-2.912-6.544-6.504-6.544s-6.504 2.93-6.504 6.544 2.912 6.543 6.504 6.543a6.46 6.46 0 0 0 3.396-.961l2.75 2.81c.28.288.649.43 1.02.43a1.4 1.4 0 0 0 1.003-.413c.563-.559.571-1.47.016-2.037zm-8.185-1.486c-2.679 0-4.857-2.192-4.857-4.886s2.178-4.887 4.857-4.887 4.857 2.192 4.857 4.887-2.178 4.886-4.857 4.886" opacity=".8"/><path fill="url(#c)" d="M20.688 27.647c0-2.216 1.671-4.106 3.84-4.106a.662.662 0 1 1 0 1.325c-1.34 0-2.516 1.195-2.516 2.781a.662.662 0 0 1-1.325 0" opacity=".8"/><path fill="url(#d)" stroke="url(#e)" stroke-width=".4" d="M39.876 24.802c0 1.276-.356 2.512-1.124 3.545-.925 1.236-2.35 2.096-3.834 2.473-.78.196-1.544.18-2.34.18a.583.583 0 0 1-.537-.8c.853-2.261.593-4.998-.772-7.023-2.833-4.705-10.315-4.697-13.148 0-1.364 2.017-1.62 4.766-.772 7.022a.583.583 0 0 1-.536.8h-1.577c-6.351.066-7.83-8.65-2.395-10.9.44-.181.743-.609.804-1.082.336-2.612 3.093-4.42 5.656-3.855.494.109 1.031-.057 1.344-.455 3.783-4.816 12.635-2.874 13.822 3.206.088.452.43.822.873.95 2.624.755 4.536 3.128 4.536 5.939Z"/><defs><linearGradient id="a" x1="24.5" x2="24.5" y1="0" y2="48" gradientUnits="userSpaceOnUse"><stop stop-color="#FCA681"/><stop offset="1" stop-color="#FD6865"/></linearGradient><linearGradient id="b" x1="25.722" x2="25.722" y1="21.024" y2="36.39" gradientUnits="userSpaceOnUse"><stop stop-color="white"/><stop offset="1" stop-color="#FFE9B9"/></linearGradient><linearGradient id="c" x1="22.939" x2="22.939" y1="23.541" y2="28.31" gradientUnits="userSpaceOnUse"><stop stop-color="white"/><stop offset="1" stop-color="#FFE9B9"/></linearGradient><linearGradient id="d" x1="24.688" x2="24.688" y1="12" y2="31" gradientUnits="userSpaceOnUse"><stop offset=".238" stop-color="#FFEFEF"/><stop offset="1" stop-color="#FFC4B5"/></linearGradient><linearGradient id="e" x1="24.688" x2="24.688" y1="12" y2="31" gradientUnits="userSpaceOnUse"><stop offset=".096" stop-color="white"/><stop offset="1" stop-color="#FF7A56"/></linearGradient></defs></svg>
